X: 101
T:Johnny going to the Ceilidh
M:4/4
L:1/8
C:Reel
K:G %i.e. Am
A3G Addc|A2AG EDEG|AG~G2 A2dc|AcAG EDD2:|!
eg~g2 edcd|edeg a3g|eg~g2 edcA|GAcd edd2:|
